**harm	**harte	**silbe	**silbe	**silbe	**rhyme	**timestamp	**phrase	**leadinstrument	**kern
*M4/4	*M4/4	*	*	*	*	*	*	*	*
*	*	*	*	*	*	*	*	*	*
*	*	*	*	*	*	*	*	*	*
*G:	*G:	*	*	*	*	*	*	*	*G:
*	*	*	*	*	*	*	*	*	*
*	*	*	*	*	*	*	*	*	*
1r;	N	.	.	.	.	0	.	r	1r;
=1	=1	=1	=1	=1	=1	=1	=1	=1	=1
*>Letter>A	*>Letter>A	*>Letter>A	*>Letter>A	*>Letter>A	*>Letter>A	*>Letter>A	*>Letter>A	*>Letter>A	*>Letter>A
*>Label>Intro	*>Label>Intro	*>Label>Intro	*>Label>Intro	*>Label>Intro	*>Label>Intro	*>Label>Intro	*>Label>Intro	*>Label>Intro	*>Label>Intro
1r	N	.	.	.	.	0.424	newline	r	1r
=2	=2	=2	=2	=2	=2	=2	=2	=2	=2
1r	N	.	.	.	.	2.618	.	r	1r
=3	=3	=3	=3	=3	=3	=3	=3	=3	=3
1r	N	.	.	.	.	4.812	.	r	1r
=4	=4	=4	=4	=4	=4	=4	=4	=4	=4
1r	N	.	.	.	.	7.006	.	r	1r
=5	=5	=5	=5	=5	=5	=5	=5	=5	=5
1I	G:maj	.	.	.	.	9.2	newline	r	1G 1b 1dd
=6	=6	=6	=6	=6	=6	=6	=6	=6	=6
1I	G:maj	.	.	.	.	11.322	.	r	1G 1b 1dd
=7	=7	=7	=7	=7	=7	=7	=7	=7	=7
1I	G:maj	.	.	.	.	13.445	.	r	1G 1b 1dd
=8	=8	=8	=8	=8	=8	=8	=8	=8	=8
1I	G:maj	.	.	.	.	15.567	.	r	1G 1b 1dd
.	.	.	.	.	.	.	.	.	.
.	.	I	.	.	.	.	.	.	.
=9	=9	=9	=9	=9	=9	=9	=9	=9	=9
*>Letter>B	*>Letter>B	*>Letter>B	*>Letter>B	*>Letter>B	*>Letter>B	*>Letter>B	*>Letter>B	*>Letter>B	*>Letter>B
*>Label>Verse	*>Label>Verse	*>Label>Verse	*>Label>Verse	*>Label>Verse	*>Label>Verse	*>Label>Verse	*>Label>Verse	*>Label>Verse	*>Label>Verse
1I	G:maj	met	.	.	.	17.69	newline	voice	1G 1b 1dd
.	.	a	.	.	.	.	.	.	.
.	.	.	.	.	.	.	.	.	.
.	.	gin	.	.	.	.	.	.	.
.	.	soaked	.	.	.	.	.	.	.
.	.	bar-	.	.	.	.	.	.	.
=10	=10	=10	=10	=10	=10	=10	=10	=10	=10
1I	G:maj	_	.	.	.	19.78	.	voice	1G 1b 1dd
.	.	-room	.	.	.	.	.	.	.
.	.	_	.	.	.	.	.	.	.
.	.	queen	.	.	A	.	.	.	.
.	.	.	.	.	.	.	.	.	.
.	.	in	.	.	.	.	.	.	.
.	.	_	.	.	.	.	.	.	.
.	.	Mem-	Mem-	.	.	.	.	.	.
=11	=11	=11	=11	=11	=11	=11	=11	=11	=11
2.IV	C:maj	-phis	-phis	.	.	21.869	.	voice	1C 1e 1g
.	.	.	.	.	.	.	.	.	.
.	.	.	.	.	.	.	.	.	.
4IV	C:sus4	.	.	.	.	23.437	.	voice	4C 4e 4g
=12	=12	=12	=12	=12	=12	=12	=12	=12	=12
1IV	C:maj	.	.	.	.	23.959	.	voice	1C 1e 1g
.	.	.	.	.	.	.	.	.	.
.	.	She	.	.	.	.	.	.	.
=13	=13	=13	=13	=13	=13	=13	=13	=13	=13
1I	G:maj	tried	.	.	.	26.049	newline	voice	1G 1b 1dd
.	.	_	.	.	.	.	.	.	.
.	.	to	.	.	.	.	.	.	.
.	.	take	.	.	.	.	.	.	.
.	.	_	.	.	.	.	.	.	.
.	.	me	.	.	.	.	.	.	.
.	.	.	.	.	.	.	.	.	.
.	.	up-	.	.	.	.	.	.	.
=14	=14	=14	=14	=14	=14	=14	=14	=14	=14
1II	A:maj	_	.	.	.	28.124	.	voice	1A 1cc# 1ee
.	.	-stairs	.	.	.	.	.	.	.
.	.	_	.	.	.	.	.	.	.
.	.	for	.	.	.	.	.	.	.
.	.	a	.	.	.	.	.	.	.
.	.	ride	ride	.	B	.	.	.	.
=15	=15	=15	=15	=15	=15	=15	=15	=15	=15
2.V	D:maj	_	_	.	.	30.2	.	voice	1D 1f# 1a
.	.	.	.	.	.	.	.	.	.
.	.	.	.	.	.	.	.	.	.
4V	D:sus4	.	.	.	.	31.757	.	voice	4D 4f# 4a
=16	=16	=16	=16	=16	=16	=16	=16	=16	=16
1V	D:maj	.	.	.	.	32.276	.	voice	1D 1f# 1a
.	.	.	.	.	.	.	.	.	.
.	.	She	.	.	.	.	.	.	.
=17	=17	=17	=17	=17	=17	=17	=17	=17	=17
1I	G:maj	had	.	.	.	34.351	newline	voice	1G 1b 1dd
.	.	to	.	.	.	.	.	.	.
.	.	.	.	.	.	.	.	.	.
.	.	heave	.	.	A	.	.	.	.
.	.	me	.	.	.	.	.	.	.
.	.	right	.	.	.	.	.	.	.
=18	=18	=18	=18	=18	=18	=18	=18	=18	=18
1I	G:maj	_	.	.	.	36.408	.	voice	1G 1b 1dd
.	.	a-	.	.	.	.	.	.	.
.	.	-cross	.	.	.	.	.	.	.
.	.	.	.	.	.	.	.	.	.
.	.	her	.	.	.	.	.	.	.
.	.	shoul-	shoul-	.	.	.	.	.	.
=19	=19	=19	=19	=19	=19	=19	=19	=19	=19
2.IV	C:maj	_	_	.	.	38.465	.	voice	1C 1e 1g
.	.	-der	-der	.	.	.	.	.	.
.	.	.	.	.	.	.	.	.	.
4IV	C:sus4	.	.	.	.	40.008	.	voice	4C 4e 4g
=20	=20	=20	=20	=20	=20	=20	=20	=20	=20
1IV	C:maj	.	.	.	.	40.522	.	voice	1C 1e 1g
.	.	.	.	.	.	.	.	.	.
.	.	'Cause	'Cause	.	.	.	.	.	.
.	.	I	I	.	.	.	.	.	.
.	.	just	just	.	.	.	.	.	.
=21	=21	=21	=21	=21	=21	=21	=21	=21	=21
1I	G:maj	_	_	.	.	42.58	newline	voice	1G 1b 1dd
.	.	can't	can't	.	.	.	.	.	.
.	.	seem	seem	.	A	.	.	.	.
.	.	to	to	.	.	.	.	.	.
.	.	.	.	.	.	.	.	.	.
=22	=22	=22	=22	=22	=22	=22	=22	=22	=22
1V	D:maj	drink	drink	.	A	44.602	.	voice	1D 1f# 1a
.	.	.	_	.	.	.	.	.	.
.	.	her	her	.	.	.	.	.	.
.	.	off	off	.	.	.	.	.	.
.	.	my	my	.	.	.	.	.	.
.	.	_	.	.	.	.	.	.	.
.	.	mind	mind	.	B	.	.	.	.
=23	=23	=23	=23	=23	=23	=23	=23	=23	=23
1I	G:maj	_	_	.	.	46.624	.	voice	1G 1b 1dd
.	.	.	.	.	.	.	.	.	.
.	.	.	.	.	.	.	.	.	.
=24	=24	=24	=24	=24	=24	=24	=24	=24	=24
1I	G:maj	.	.	.	.	48.647	.	voice	1G 1b 1dd
.	.	.	.	.	.	.	.	.	.
.	.	It's	It's	.	.	.	.	.	.
.	.	a	a	.	.	.	.	.	.
.	.	hon-	hon-	.	.	.	.	.	.
=25	=25	=25	=25	=25	=25	=25	=25	=25	=25
*>Letter>C	*>Letter>C	*>Letter>C	*>Letter>C	*>Letter>C	*>Letter>C	*>Letter>C	*>Letter>C	*>Letter>C	*>Letter>C
*>Label>Chorus	*>Label>Chorus	*>Label>Chorus	*>Label>Chorus	*>Label>Chorus	*>Label>Chorus	*>Label>Chorus	*>Label>Chorus	*>Label>Chorus	*>Label>Chorus
1I	G:maj	_	_	.	.	50.669	newline	voice	1G 1b 1dd
.	.	_	_	.	.	.	.	.	.
.	.	_	_	.	.	.	.	.	.
.	.	_	_	.	.	.	.	.	.
.	.	_	_	.	.	.	.	.	.
=26	=26	=26	=26	=26	=26	=26	=26	=26	=26
1V	D:maj	_	_	.	.	52.686	.	voice	1D 1f# 1a
.	.	_	_	.	.	.	.	.	.
.	.	-ky	-ky	.	.	.	.	.	.
.	.	tonk	tonk	.	.	.	.	.	.
=27	=27	=27	=27	=27	=27	=27	=27	=27	=27
1I	G:maj	wo-	wo-	.	.	54.702	.	voice	1G 1b 1dd
.	.	-man	-man	.	.	.	.	.	.
.	.	.	.	.	.	.	.	.	.
.	.	.	.	.	.	.	.	.	.
=28	=28	=28	=28	=28	=28	=28	=28	=28	=28
1I	G:maj	.	.	.	.	56.718	.	voice	1G 1b 1dd
=29	=29	=29	=29	=29	=29	=29	=29	=29	=29
1I	G:maj	Give	Give	.	.	58.735	newline	voice	1G 1b 1dd
.	.	me	me	.	.	.	.	.	.
.	.	Give	Give	.	.	.	.	.	.
.	.	me	me	.	.	.	.	.	.
.	.	.	.	.	.	.	.	.	.
=30	=30	=30	=30	=30	=30	=30	=30	=30	=30
1V	D:maj	Give	Give	.	.	60.706	.	voice	1D 1f# 1a
.	.	me	me	.	.	.	.	.	.
.	.	the	the	.	.	.	.	.	.
.	.	hon-	hon-	.	.	.	.	.	.
.	.	-ky	-ky	.	.	.	.	.	.
.	.	tonk	tonk	.	.	.	.	.	.
.	.	.	_	.	.	.	.	.	.
=31	=31	=31	=31	=31	=31	=31	=31	=31	=31
1I	G:maj	blues	blues	.	.	62.678	.	voice	1G 1b 1dd
.	.	.	.	.	.	.	.	.	.
.	.	.	.	.	.	.	.	.	.
=32	=32	=32	=32	=32	=32	=32	=32	=32	=32
1I	G:maj	.	.	.	.	64.649	.	voice	1G 1b 1dd
.	.	.	.	.	.	.	.	.	.
.	.	I	.	.	.	.	.	.	.
=33	=33	=33	=33	=33	=33	=33	=33	=33	=33
*>Letter>B	*>Letter>B	*>Letter>B	*>Letter>B	*>Letter>B	*>Letter>B	*>Letter>B	*>Letter>B	*>Letter>B	*>Letter>B
*>Label>Verse	*>Label>Verse	*>Label>Verse	*>Label>Verse	*>Label>Verse	*>Label>Verse	*>Label>Verse	*>Label>Verse	*>Label>Verse	*>Label>Verse
1I	G:maj	laid	.	.	.	66.62	newline	voice	1G 1b 1dd
.	.	a	.	.	.	.	.	.	.
.	.	.	.	.	.	.	.	.	.
.	.	di-	.	.	.	.	.	.	.
.	.	-vor-	.	.	.	.	.	.	.
.	.	-cee	.	.	A	.	.	.	.
=34	=34	=34	=34	=34	=34	=34	=34	=34	=34
1I	G:maj	_	.	.	.	68.62	.	voice	1G 1b 1dd
.	.	in	.	.	.	.	.	.	.
.	.	_	.	.	.	.	.	.	.
.	.	New	.	.	.	.	.	.	.
.	.	.	.	.	.	.	.	.	.
.	.	York	.	.	.	.	.	.	.
.	.	ci-	ci-	.	.	.	.	.	.
=35	=35	=35	=35	=35	=35	=35	=35	=35	=35
2.IV	C:maj	-ty	-ty	.	A	70.62	.	voice	1C 1e 1g
.	.	.	.	.	.	.	.	.	.
.	.	.	.	.	.	.	.	.	.
4IV	C:sus4	.	.	.	.	72.12	.	voice	4C 4e 4g
=36	=36	=36	=36	=36	=36	=36	=36	=36	=36
1IV	C:maj	.	.	.	.	72.62	.	voice	1C 1e 1g
.	.	.	.	.	.	.	.	.	.
.	.	I	.	.	.	.	.	.	.
=37	=37	=37	=37	=37	=37	=37	=37	=37	=37
1I	G:maj	had	.	.	.	74.62	newline	voice	1G 1b 1dd
.	.	to	.	.	.	.	.	.	.
.	.	.	.	.	.	.	.	.	.
.	.	put	.	.	.	.	.	.	.
.	.	_	.	.	.	.	.	.	.
.	.	up	.	.	.	.	.	.	.
.	.	some	.	.	.	.	.	.	.
=38	=38	=38	=38	=38	=38	=38	=38	=38	=38
1II	A:maj	_	.	.	.	76.61	.	voice	1A 1cc# 1ee
.	.	kind	.	.	.	.	.	.	.
.	.	_	.	.	.	.	.	.	.
.	.	of	.	.	.	.	.	.	.
.	.	a	.	.	.	.	.	.	.
.	.	fight	fight	.	B	.	.	.	.
=39	=39	=39	=39	=39	=39	=39	=39	=39	=39
2.V	D:maj	_	_	.	.	78.6	.	voice	1D 1f# 1a
.	.	.	.	.	.	.	.	.	.
.	.	.	.	.	.	.	.	.	.
4V	D:sus4	.	.	.	.	80.092	.	voice	4D 4f# 4a
=40	=40	=40	=40	=40	=40	=40	=40	=40	=40
1V	D:maj	.	.	.	.	80.59	.	voice	1D 1f# 1a
.	.	.	.	.	.	.	.	.	.
.	.	The	.	.	.	.	.	.	.
=41	=41	=41	=41	=41	=41	=41	=41	=41	=41
1I	G:maj	la-	.	.	.	82.58	newline	voice	1G 1b 1dd
.	.	-dy	.	.	a	.	.	.	.
.	.	.	.	.	.	.	.	.	.
.	.	then	.	.	.	.	.	.	.
.	.	she	.	.	a	.	.	.	.
.	.	co-	.	.	.	.	.	.	.
=42	=42	=42	=42	=42	=42	=42	=42	=42	=42
1I	G:maj	_	.	.	.	84.573	.	voice	1G 1b 1dd
.	.	-vered	.	.	.	.	.	.	.
.	.	me	.	.	A	.	.	.	.
.	.	.	.	.	.	.	.	.	.
.	.	in	.	.	.	.	.	.	.
.	.	ro-	ro-	.	.	.	.	.	.
=43	=43	=43	=43	=43	=43	=43	=43	=43	=43
2.IV	C:maj	_	_	.	.	86.566	.	voice	1C 1e 1g
.	.	-ses	-ses	.	.	.	.	.	.
.	.	.	.	.	.	.	.	.	.
4IV	C:sus4	.	.	.	.	88.061	.	voice	4C 4e 4g
=44	=44	=44	=44	=44	=44	=44	=44	=44	=44
1IV	C:maj	.	.	.	.	88.56	.	voice	1C 1e 1g
.	.	.	.	.	.	.	.	.	.
.	.	She	She	.	A	.	.	.	.
=45	=45	=45	=45	=45	=45	=45	=45	=45	=45
1I	G:maj	blew	blew	.	.	90.553	newline	voice	1G 1b 1dd
.	.	my	my	.	.	.	.	.	.
.	.	nose	nose	.	.	.	.	.	.
.	.	_	.	.	.	.	.	.	.
.	.	and	and	.	.	.	.	.	.
.	.	.	.	.	.	.	.	.	.
=46	=46	=46	=46	=46	=46	=46	=46	=46	=46
1V	D:maj	then	then	.	.	92.537	.	voice	1D 1f# 1a
.	.	.	_	.	.	.	.	.	.
.	.	she	she	.	a	.	.	.	.
.	.	blew	blew	.	.	.	.	.	.
.	.	my	my	.	.	.	.	.	.
.	.	_	.	.	.	.	.	.	.
.	.	mind	mind	.	B	.	.	.	.
=47	=47	=47	=47	=47	=47	=47	=47	=47	=47
1I	G:maj	_	_	.	.	94.521	.	voice	1G 1b 1dd
.	.	.	.	.	.	.	.	.	.
.	.	.	.	.	.	.	.	.	.
.	.	.	.	.	.	.	.	.	.
=48	=48	=48	=48	=48	=48	=48	=48	=48	=48
1I	G:maj	.	.	.	.	96.506	.	voice	1G 1b 1dd
.	.	.	.	.	.	.	.	.	.
.	.	It's	It's	.	.	.	.	.	.
.	.	a	a	.	.	.	.	.	.
.	.	hon-	hon-	.	.	.	.	.	.
=49	=49	=49	=49	=49	=49	=49	=49	=49	=49
*>Letter>C	*>Letter>C	*>Letter>C	*>Letter>C	*>Letter>C	*>Letter>C	*>Letter>C	*>Letter>C	*>Letter>C	*>Letter>C
*>Label>Chorus	*>Label>Chorus	*>Label>Chorus	*>Label>Chorus	*>Label>Chorus	*>Label>Chorus	*>Label>Chorus	*>Label>Chorus	*>Label>Chorus	*>Label>Chorus
1I	G:maj	_	_	.	.	98.49	newline	voice	1G 1b 1dd
.	.	_	_	.	.	.	.	.	.
.	.	_	_	.	.	.	.	.	.
.	.	_	_	.	.	.	.	.	.
.	.	_	_	.	.	.	.	.	.
=50	=50	=50	=50	=50	=50	=50	=50	=50	=50
1V	D:maj	_	_	.	.	100.461	.	voice	1D 1f# 1a
.	.	_	_	.	.	.	.	.	.
.	.	-ky	-ky	.	.	.	.	.	.
.	.	tonk	tonk	.	.	.	.	.	.
=51	=51	=51	=51	=51	=51	=51	=51	=51	=51
1I	G:maj	wo-	wo-	.	.	102.433	.	voice	1G 1b 1dd
.	.	-man	-man	.	.	.	.	.	.
.	.	.	.	.	.	.	.	.	.
.	.	.	.	.	.	.	.	.	.
=52	=52	=52	=52	=52	=52	=52	=52	=52	=52
1I	G:maj	.	.	.	.	104.404	.	voice	1G 1b 1dd
=53	=53	=53	=53	=53	=53	=53	=53	=53	=53
1I	G:maj	Give	Give	.	.	106.376	newline	voice	1G 1b 1dd
.	.	me	me	.	.	.	.	.	.
.	.	Give	Give	.	.	.	.	.	.
.	.	me	me	.	.	.	.	.	.
.	.	.	.	.	.	.	.	.	.
=54	=54	=54	=54	=54	=54	=54	=54	=54	=54
1V	D:maj	Give	Give	.	.	108.329	.	voice	1D 1f# 1a
.	.	me	me	.	.	.	.	.	.
.	.	the	the	.	.	.	.	.	.
.	.	hon-	hon-	.	.	.	.	.	.
.	.	-ky	-ky	.	.	.	.	.	.
.	.	tonk	tonk	.	.	.	.	.	.
.	.	.	_	.	.	.	.	.	.
=55	=55	=55	=55	=55	=55	=55	=55	=55	=55
1I	G:maj	blues	blues	.	.	110.282	.	voice	1G 1b 1dd
.	.	.	.	.	.	.	.	.	.
.	.	.	.	.	.	.	.	.	.
.	.	Yeah	.	.	.	.	.	.	.
.	.	al-	.	.	.	.	.	.	.
=56	=56	=56	=56	=56	=56	=56	=56	=56	=56
1I	G:maj	_	.	.	.	112.235	.	voice	1G 1b 1dd
.	.	-right!	.	.	.	.	.	.	.
.	.	.	.	.	.	.	.	.	.
=57	=57	=57	=57	=57	=57	=57	=57	=57	=57
*>Letter>B	*>Letter>B	*>Letter>B	*>Letter>B	*>Letter>B	*>Letter>B	*>Letter>B	*>Letter>B	*>Letter>B	*>Letter>B
*>Label>Solo	*>Label>Solo	*>Label>Solo	*>Label>Solo	*>Label>Solo	*>Label>Solo	*>Label>Solo	*>Label>Solo	*>Label>Solo	*>Label>Solo
1I	G:maj	.	.	.	.	114.189	newline	guitar	1G 1b 1dd
=58	=58	=58	=58	=58	=58	=58	=58	=58	=58
1I	G:maj	.	.	.	.	116.139	.	guitar	1G 1b 1dd
=59	=59	=59	=59	=59	=59	=59	=59	=59	=59
2.IV	C:maj	.	.	.	.	118.09	.	guitar	1C 1e 1g
4IV	C:sus4	.	.	.	.	119.553	.	guitar	4C 4e 4g
=60	=60	=60	=60	=60	=60	=60	=60	=60	=60
1IV	C:maj	.	.	.	.	120.041	.	guitar	1C 1e 1g
=61	=61	=61	=61	=61	=61	=61	=61	=61	=61
1I	G:maj	.	.	.	.	121.992	newline	guitar	1G 1b 1dd
=62	=62	=62	=62	=62	=62	=62	=62	=62	=62
1II	A:maj	.	.	.	.	123.933	.	guitar	1A 1cc# 1ee
=63	=63	=63	=63	=63	=63	=63	=63	=63	=63
2.V	D:maj	.	.	.	.	125.873	.	guitar	1D 1f# 1a
4V	D:sus4	.	.	.	.	127.329	.	guitar	4D 4f# 4a
=64	=64	=64	=64	=64	=64	=64	=64	=64	=64
1V	D:maj	.	.	.	.	127.814	.	guitar	1D 1f# 1a
=65	=65	=65	=65	=65	=65	=65	=65	=65	=65
1I	G:maj	.	.	.	.	129.755	newline	guitar	1G 1b 1dd
=66	=66	=66	=66	=66	=66	=66	=66	=66	=66
1I	G:maj	.	.	.	.	131.7	.	guitar	1G 1b 1dd
=67	=67	=67	=67	=67	=67	=67	=67	=67	=67
2.IV	C:maj	.	.	.	.	133.645	.	guitar	1C 1e 1g
4IV	C:sus4	.	.	.	.	135.104	.	guitar	4C 4e 4g
=68	=68	=68	=68	=68	=68	=68	=68	=68	=68
1IV	C:maj	.	.	.	.	135.59	.	guitar	1C 1e 1g
=69	=69	=69	=69	=69	=69	=69	=69	=69	=69
1I	G:maj	.	.	.	.	137.535	newline	guitar	1G 1b 1dd
=70	=70	=70	=70	=70	=70	=70	=70	=70	=70
1V	D:maj	.	.	.	.	139.465	.	guitar	1D 1f# 1a
=71	=71	=71	=71	=71	=71	=71	=71	=71	=71
1I	G:maj	.	.	.	.	141.395	.	guitar	1G 1b 1dd
=72	=72	=72	=72	=72	=72	=72	=72	=72	=72
1I	G:maj	.	.	.	.	143.326	.	guitar	1G 1b 1dd
.	.	.	.	.	.	.	.	.	.
.	.	It's	It's	.	.	.	.	.	.
.	.	a	a	.	.	.	.	.	.
.	.	hon-	hon-	.	.	.	.	.	.
=73	=73	=73	=73	=73	=73	=73	=73	=73	=73
*>Letter>C	*>Letter>C	*>Letter>C	*>Letter>C	*>Letter>C	*>Letter>C	*>Letter>C	*>Letter>C	*>Letter>C	*>Letter>C
*>Label>Chorus	*>Label>Chorus	*>Label>Chorus	*>Label>Chorus	*>Label>Chorus	*>Label>Chorus	*>Label>Chorus	*>Label>Chorus	*>Label>Chorus	*>Label>Chorus
1I	G:maj	_	_	Hon-	.	145.256	newline	voice	1G 1b 1dd
.	.	.	.	-ky	.	.	.	.	.
.	.	_	_	tonk	.	.	.	.	.
.	.	_	_	.	.	.	.	.	.
.	.	_	_	.	.	.	.	.	.
.	.	_	_	.	.	.	.	.	.
=74	=74	=74	=74	=74	=74	=74	=74	=74	=74
1V	D:maj	_	_	Hon-	.	147.199	.	voice	1D 1f# 1a
.	.	.	.	-ky	.	.	.	.	.
.	.	_	_	tonk	.	.	.	.	.
.	.	-ky	-ky	.	.	.	.	.	.
.	.	tonk	tonk	.	.	.	.	.	.
=75	=75	=75	=75	=75	=75	=75	=75	=75	=75
1I	G:maj	wo-	wo-	.	.	149.142	.	voice	1G 1b 1dd
.	.	-man	-man	.	.	.	.	.	.
.	.	.	.	.	.	.	.	.	.
.	.	.	.	.	.	.	.	.	.
=76	=76	=76	=76	=76	=76	=76	=76	=76	=76
1I	G:maj	.	.	.	.	151.085	.	voice	1G 1b 1dd
=77	=77	=77	=77	=77	=77	=77	=77	=77	=77
1I	G:maj	Give	Give	.	.	153.029	newline	voice	1G 1b 1dd
.	.	me	me	.	.	.	.	.	.
.	.	Give	Give	.	.	.	.	.	.
.	.	me	me	.	.	.	.	.	.
.	.	.	.	.	.	.	.	.	.
=78	=78	=78	=78	=78	=78	=78	=78	=78	=78
1V	D:maj	Give	Give	.	.	154.951	.	voice	1D 1f# 1a
.	.	me	me	.	.	.	.	.	.
.	.	the	the	.	.	.	.	.	.
.	.	hon-	hon-	.	.	.	.	.	.
.	.	-ky	-ky	.	.	.	.	.	.
.	.	tonk	tonk	.	.	.	.	.	.
.	.	.	_	.	.	.	.	.	.
=79	=79	=79	=79	=79	=79	=79	=79	=79	=79
1I	G:maj	blues	blues	.	.	156.873	.	voice	1G 1b 1dd
.	.	.	.	.	.	.	.	.	.
.	.	.	.	.	.	.	.	.	.
.	.	Yeah	.	.	.	.	.	.	.
.	.	now!	.	.	.	.	.	.	.
=80	=80	=80	=80	=80	=80	=80	=80	=80	=80
1I	G:maj	.	.	.	.	158.796	.	voice	1G 1b 1dd
.	.	.	.	.	.	.	.	.	.
.	.	It's	It's	.	.	.	.	.	.
.	.	a	a	.	.	.	.	.	.
.	.	hon-	hon-	.	.	.	.	.	.
=81	=81	=81	=81	=81	=81	=81	=81	=81	=81
*>Letter>C	*>Letter>C	*>Letter>C	*>Letter>C	*>Letter>C	*>Letter>C	*>Letter>C	*>Letter>C	*>Letter>C	*>Letter>C
*>Label>Chorus	*>Label>Chorus	*>Label>Chorus	*>Label>Chorus	*>Label>Chorus	*>Label>Chorus	*>Label>Chorus	*>Label>Chorus	*>Label>Chorus	*>Label>Chorus
1I	G:maj	_	_	Hon-	.	160.718	newline	voice	1G 1b 1dd
.	.	.	.	-ky	.	.	.	.	.
.	.	_	_	tonk	.	.	.	.	.
.	.	_	_	.	.	.	.	.	.
.	.	_	_	.	.	.	.	.	.
.	.	_	_	.	.	.	.	.	.
=82	=82	=82	=82	=82	=82	=82	=82	=82	=82
1V	D:maj	_	_	Hon-	.	162.649	.	voice	1D 1f# 1a
.	.	.	.	-ky	.	.	.	.	.
.	.	_	_	tonk	.	.	.	.	.
.	.	-ky	-ky	.	.	.	.	.	.
.	.	tonk	tonk	.	.	.	.	.	.
=83	=83	=83	=83	=83	=83	=83	=83	=83	=83
1I	G:maj	wo-	wo-	.	.	164.58	.	voice	1G 1b 1dd
.	.	-man	-man	.	.	.	.	.	.
.	.	.	.	.	.	.	.	.	.
.	.	.	.	.	.	.	.	.	.
=84	=84	=84	=84	=84	=84	=84	=84	=84	=84
1I	G:maj	.	.	.	.	166.51	.	voice	1G 1b 1dd
=85	=85	=85	=85	=85	=85	=85	=85	=85	=85
1I	G:maj	Give	Give	.	.	168.441	newline	voice	1G 1b 1dd
.	.	me	me	.	.	.	.	.	.
.	.	Give	Give	.	.	.	.	.	.
.	.	me	me	.	.	.	.	.	.
.	.	.	.	.	.	.	.	.	.
=86	=86	=86	=86	=86	=86	=86	=86	=86	=86
1V	D:maj	Give	Give	.	.	170.382	.	voice	1D 1f# 1a
.	.	me	me	.	.	.	.	.	.
.	.	the	the	.	.	.	.	.	.
.	.	hon-	hon-	.	.	.	.	.	.
.	.	-ky	-ky	.	.	.	.	.	.
.	.	tonk	tonk	.	.	.	.	.	.
.	.	.	_	.	.	.	.	.	.
=87	=87	=87	=87	=87	=87	=87	=87	=87	=87
4I	G:maj	blues	blues	.	.	172.324	.	voice	4G 4b 4dd
4Ib	G:maj/3	.	.	.	.	172.809	.	voice	4g 4B 4dd
4If	G:maj/4	.	.	.	.	173.294	.	voice	2G 2b 2dd
4If	G:maj/#4	.	.	.	.	173.78	.	voice	4G 4b 4dd
=88	=88	=88	=88	=88	=88	=88	=88	=88	=88
2Ic	G:maj/5	.	.	.	.	174.265	.	voice	1g 1b 1D
2I	G:maj	.	.	.	.	175.236	.	voice	2G 2b 2dd
1r;	N	.	.	.	.	179.119	.	r	1r;
1r;	N	.	.	.	.	182.282	.	r	1r;
*-	*-	*-	*-	*-	*-	*-	*-	*-	*-
!!!BillboardChartDate: 1969/07/19, 1969/10/04
!!!BillboardPeak: 1, 1
!!!BillboardWeeksOnChart: 15, 15
!!!COC: The Rolling Stones
!!!ENC: Nathaniel Condit-Schultz
!!!EST: Awating manual error checking and editing.
!!!OTL: Honky Tonk Women
!!!RDF**harte: Chris Harte's syntax, used by MIREX
!!!RDF**harmony: **recip + pitch class of root + harmonic quality
!!!RDF**leadinstrument: original McGill primary instrumentation annotation
!!!RDF**phrase: newline = linebreak in original McGill transcription
!!!RDF**timestamp: McGill audio timestamp in seconds
!!!RDT: 2017/01/12/
!!!SampleActualRank: 79,  6
!!!SampleID#: 229, 1266
!!!SampleTargetRank: 78,  7
!!!MBID: 18c646bf-3aca-42c0-b525-26f178f02ea9
